X: 42227
T: Wayfaring, The
R: reel
M: 4/4
K: Aminor
AGAB cBAG|EGDG EGAB|cBcd egge|aged ~c2~B2|
AGAB cBAG|EGDG EGAB|cEAc BAGB|dBGB ~A3E:|
cBcd egge|aged cAAB|cBcd egge|ageg ~a3b|
c'aba agef|gedc BAGB|ecdB cBAG|EAAG ~A3B:|

